dist/svg/u1F473.svg

<?xml version="1.0" encoding="UTF-8"?><svg id="Layer_1" xmlns="http://www.w3.org/2000/svg" viewBox="0 0 40 40"><g><g><path d="M5.12599,28.00092l1.47795,5.93492c.27363,1.09881,1.26046,1.87003,2.39283,1.87003H30.94193c1.21343,0,2.24652-.8828,2.43574-2.08138l.90356-5.72356H5.12599Z" style="fill:#ff9000;"/><circle cx="20" cy="24.01027" r="12.98973" style="fill:#ffc84d;"/><g><ellipse cx="8.14524" cy="24.37496" rx="5.20009" ry="4.87722" style="fill:#ffc84d;"/><ellipse cx="31.85476" cy="24.37496" rx="5.20009" ry="4.87722" style="fill:#ffc84d;"/></g><path d="M34.68948,20.28556c.13117-8.91845-7.54151-16.20016-16.62809-15.22434-6.9885,.7505-12.58491,6.43043-13.24392,13.42815-.06705,.712-.08419,1.41496-.05451,2.10579,0,0,1.26957-.30246,2.39917,2.1496L15.73059,13.15691s10.40209,8.35401,17.2673,7.89817c.1512-.01004,.32574-.06251,.49797-.13621,.45764-.25782,.84208-.73566,1.19362-.63332Z" style="fill:#333;"/><g><ellipse cx="16.3506" cy="23.38188" rx="1.38235" ry="1.65882"/><ellipse cx="23.6494" cy="23.38188" rx="1.38235" ry="1.65882"/></g><path d="M21.71957,29.92228c.31067,0,.53135,.29845,.44894,.59799-.26187,.95176-1.13354,1.6509-2.16851,1.6509s-1.90664-.69914-2.16851-1.6509c-.08241-.29954,.13827-.59799,.44894-.59799h3.43915Z" style="fill:#5c2f17;"/></g><g><path d="M4.294,18.34624C4.294,9.63041,11.55993,2.61162,20.36502,3.0167c8.05225,.37044,14.57393,7.17685,14.62122,15.23748,.00436,.74231-.04399,1.47248-.14153,2.187-.17858,1.30823-1.54694,2.10061-2.7859,1.64419l-12.41855-4.57493-15.34626,.83581Z" style="fill:#c2bfbe;"/><path d="M24.61496,3.78182c-4.49766,.91275-12.02661,3.57089-19.9714,11.25843-.22319,1.04105-.3467,2.11905-.3467,3.22676,0,1.06875,.11422,2.10961,.32667,3.11462,.26488,1.25306,1.61113,1.95568,2.80288,1.48657l26.39356-10.38929c-1.66242-4.07138-5.02446-7.25754-9.20501-8.69709Z" style="fill:#d6d3d2;"/><polygon points="20.36206 17.77634 22.64117 18.61595 33.81996 12.47891 20.36206 17.77634" style="fill:#aba8a8;"/></g><path d="M7.4264,22.8682h1.48824c.67565,0,1.34368-.14273,1.96033-.41885l10.39845-4.33726-.91136-.33574-12.93566,5.09186Z" style="fill:#ddb455;"/></g><rect x="0" width="40" height="40" style="fill:none;"/></svg>

<svg xmlns="http://www.w3.org/2000/svg" viewBox="0 0 40 40"><defs><style>.cls-1{isolation:isolate;}.cls-2{fill:#ff9000;}.cls-3{fill:#ffc84d;}.cls-4{fill:#333;}.cls-5{fill:#5c2f17;}.cls-6{fill:#c2bfbe;}.cls-7{fill:#d6d3d2;}.cls-8{fill:#aba8a8;}.cls-9{fill:#e5d8bd;mix-blend-mode:multiply;}.cls-10{fill:none;}</style></defs><g class="cls-1"><g id="Layer_1" data-name="Layer 1"><path class="cls-2" d="M5.126,28,6.6,33.936A2.466,2.466,0,0,0,9,35.806H30.942a2.467,2.467,0,0,0,2.436-2.082l.9-5.723Z"/><circle class="cls-3" cx="20" cy="24.01" r="12.99"/><ellipse class="cls-3" cx="8.145" cy="24.375" rx="5.2" ry="4.877"/><ellipse class="cls-3" cx="31.855" cy="24.375" rx="5.2" ry="4.877"/><path class="cls-4" d="M34.689,20.286a14.973,14.973,0,0,0-29.872-1.8A15.359,15.359,0,0,0,4.763,20.6s1.27-.3,2.4,2.15l8.569-9.588s10.4,8.354,17.267,7.9a1.586,1.586,0,0,0,.5-.136C33.954,20.661,34.338,20.183,34.689,20.286Z"/><ellipse cx="16.351" cy="23.382" rx="1.382" ry="1.659"/><ellipse cx="23.649" cy="23.382" rx="1.382" ry="1.659"/><path class="cls-5" d="M21.72,29.922a.471.471,0,0,1,.449.6,2.25,2.25,0,0,1-4.338,0,.471.471,0,0,1,.449-.6Z"/><path class="cls-6" d="M4.294,18.346a15.346,15.346,0,1,1,30.551,2.095,2.08,2.08,0,0,1-2.786,1.644L19.64,17.51Z"/><path class="cls-7" d="M24.615,3.782C20.117,4.7,12.588,7.353,4.644,15.04A15.316,15.316,0,0,0,4.3,18.267a15,15,0,0,0,.327,3.115,2.081,2.081,0,0,0,2.8,1.486L33.82,12.479A15.359,15.359,0,0,0,24.615,3.782Z"/><polygon class="cls-8" points="20.362 17.776 22.641 18.616 33.82 12.479 20.362 17.776"/><path class="cls-9" d="M7.426,22.868H8.915a4.8,4.8,0,0,0,1.96-.419l10.4-4.337-.911-.336Z"/><rect class="cls-10" width="40" height="40"/></g></g></svg>
